app/dist/common/images/godolphin-res-ltd.svg

<svg fill="none" height="18" viewBox="0 0 18 18" width="18" xmlns="http://www.w3.org/2000/svg"><path d="m0 0h18v18h-18z" fill="#f0f3fa"/><g clip-rule="evenodd" fill-rule="evenodd"><path d="m7.55225 7.72095c.53291.06275 1.24636.31852 1.4159.49429-.05307.08475-.46192.19016-.5549.16612-.45568-.20552-.66391-.45639-.861-.66041z" fill="#4c97b6"/><path d="m4.00068 11.5928-.00068 1.2422c0 .6431.52111 1.165 1.1656 1.165h7.6687c.6438 0 1.1657-.5219 1.1657-1.165v-7.6693c0-.64384-.5219-1.1657-1.1657-1.1657h-7.6687c-.15304-.00012-.30461.02994-.44604.08847s-.26995.14437-.3782.25264c-.10825.10826-.19412.23681-.25269.3783-.05858.14149-.08871.29314-.08867.44629l.0338 1.40748c.98778-.02336 1.38279-.01793 3.12189.07797 1.95155.10676 2.53876.63134 2.82069 1.41372 1.15732.4185 2.83652 1.43112 3.03432 2.22653.0911.3625.0159 1.1635-.3418 1.7668-.0089-.2206-.0366-.3489-.1227-.5522-.1269-.2971-.1413-.3446-.3784-.5466-3.08541-.8651-6.65199-.1641-8.16712.6334z" fill="#f5c649"/></g></svg>

<!-- by TradingView --><svg width="18" height="18" viewBox="0 0 18 18" fill="none" xmlns="http://www.w3.org/2000/svg">
<rect width="18" height="18" fill="#F0F3FA"/>
<path fill-rule="evenodd" clip-rule="evenodd" d="M7.55225 7.72095C8.08516 7.7837 8.79861 8.03947 8.96815 8.21524C8.91508 8.29999 8.50623 8.4054 8.41325 8.38136C7.95757 8.17584 7.74934 7.92497 7.55225 7.72095Z" fill="#4C97B6"/>
<path fill-rule="evenodd" clip-rule="evenodd" d="M4.00068 11.5928L4 12.835C4 13.4781 4.52111 14 5.1656 14H12.8343C13.4781 14 14 13.4781 14 12.835V5.1657C14 4.52186 13.4781 4 12.8343 4H5.1656C5.01256 3.99988 4.86099 4.02994 4.71956 4.08847C4.57813 4.147 4.44961 4.23284 4.34136 4.34111C4.23311 4.44937 4.14724 4.57792 4.08867 4.71941C4.03009 4.8609 3.99996 5.01255 4 5.1657L4.0338 6.57318C5.02158 6.54982 5.41659 6.55525 7.15569 6.65115C9.10724 6.75791 9.69445 7.28249 9.97638 8.06487C11.1337 8.48337 12.8129 9.49599 13.0107 10.2914C13.1018 10.6539 13.0266 11.4549 12.6689 12.0582C12.66 11.8376 12.6323 11.7093 12.5462 11.506C12.4193 11.2089 12.4049 11.1614 12.1678 10.9594C9.08239 10.0943 5.51581 10.7953 4.00068 11.5928Z" fill="#F5C649"/>
</svg>
